X:1
T:Lord Inchiquin
C:Turlough O'Carolan
O:Ireland
Z:ABC by Thornton Rose, 2002
S:Celtic Nots
M:3/4
L:1/8
K:D
A2 | d2 defe | d2 edcB | A2 F2 A2 | f4 {g}fe | d2 edcB | A2 G2 F2 |
G2 BAGF | E3 a {b}ag | f3 e d2 | d2 c2 B2 | A2 F2 A2 | f4 {g}fe | d2 edcB |
A d3 F2 | E3 A D2 | {F}D4 ::
A2 | ABcd e2 | e2 d2 e2 | f2 d2 f2 | e4 d2 | defg a2 | a2 b2 g2 |
fedefd | e4 {g}fe | defg a2 | a2 b2 g2 | f3 g e2 | d4 f2 | gf e2 e2 |
e3 f d2 | c3 d B2 | A3 a {b}ag | f3 e d2 | d2 c2 B2 | A2 F2 A2 | g4 fe |
d2 edcB | A d3 F2 | E3 A D2 | {F}D4 :|
